/* XPM */
static char *_8a16e87cfbd41568914b589ac0300feWHNkjTkKd7oQeiHA[] = {
/* columns rows colors chars-per-pixel */
"64 64 7 1 ",
"  c #5B2F00",
". c #8B0000",
"X c #A90000",
"o c #C00000",
"O c #DA7100",
"+ c #AFAFAF",
"@ c white",
/* pixels */
"................Xoo.............Xoo............Xoo..............",
"................Xoo.............Xoo............Xoo..............",
"................Xoo.............Xoo............Xoo..............",
"................Xoo.............Xoo............Xoo..............",
"................Xoo.............Xoo............Xoo..............",
"................Xoo.............Xoo............Xoo..............",
"................Xoo.............Xoo............Xoo..............",
"................Xoo.............Xoo............Xoo..............",
"XXXXXXXXXXXXXXXXXooXXXXXXXXXXXXXXooXXXXXXXXXXXXXooXXXXXXXXXXXXXX",
"oooooooooooooooooooooooooooooooooooooooooooooooooooooooooooooooo",
"ooooo+oooooooooooooooooo+ooooooooooooooooooooooooooooooooooooooo",
".....+..........@@@.....+.......Xoo............Xoo..............",
".....+@@@@..@@@@@@@@@@@@+.......Xoo............Xoo..............",
".....+@@@@@@@@@@@@@@@@@@+.......Xoo............Xoo..............",
".....+@@@@@@@@@@@@@@@@@@+.......Xoo............Xoo..............",
".....+@@@@@@@@@@@@@@@@@@+.......Xoo............Xoo..............",
".....+@@@@@@@@@@@@@@@@@@+.......Xoo............Xoo..............",
".....+@@@@@@@@@@@@@@@@@@+.......Xoo............Xoo..............",
".....+@@@@@@@@@@@@@@@@@@+.......Xoo............Xoo..............",
"XXXXX+@@@@@@@@@@@@@@@@@@+XXXXXXXXooXXXXXXXXXXXXXooXXXXXXXXXXXXXX",
"ooooo+@@@@@@@@@@@@@@@@@@+ooooooooooooooooooooooooooooooooooooooo",
"ooooo+@@@@@@@@@@@@@@@@@@+ooooooooooooooooooooooooooooooooooooooo",
".....+@@@@@@@@@@@@@@@@@@+.......Xoo............Xoo..............",
".....+@@@@@@@@@@@@@@@@@@+.......Xoo............Xoo..............",
".....+@@@@@@@@@@@@@@@@@@+.......Xoo............Xoo..............",
".....+@@@@@@@@@@@@@@@@@@+.......Xoo............Xoo..............",
".....+@@@@@@@@@@@@@@@@@@+.......Xoo............Xoo..............",
".....+@@@@@@@@@@@@@@@@@@+.OOOOOOOOOOOOOO.......Xoo..............",
".....+@@@@@@@@@@@@@@@OOOOOOOOOOOOOOOOOOOOOOOO..Xoo..............",
"XXXXX+@@@@@@@@@@@@@OOOOOOOOOOOOOOOOOOOOOOOOOOOOXooXXXXXXXXXXXXXX",
"ooooo+@@@@@@@@@@OOOOOOOOOOOOOOOOOO  OOOOOOOOOOOOOOoooooooooooooo",
"ooooo+@@@@@@@@@OOOOOOOOOOOOOOOOOO    OOOOOOOOOOOOOOooooooooooooo",
".....+@@@@@@@OOOOOOO   OOOOOOOOOO    OOOOOOOOOOOOOOOO...........",
".....+@@@@@@OOOOOOO     OOOOOOOOOO  OOOOOOO   OOOOOOOO..........",
".....+@@@@@@OOOOOOO     OOOOOOOOOOOOOOOOOO     OOOOOOO..........",
".....+@@@@@OOOOOOOOO   OOOOOOOOOOOOOOOOOOO     OOOOOOOO.........",
".....+@@@@OOOOOOOOOOOOOOOOOOOOOOOOOOOOOOOOO   OOOOOOOOOO........",
".....+@@@@OOO OOOOOOOOOOOOOOOOOOOOOO OOOOOOOOOOOOOOOOOOO........",
".....+@@@@OOO   OOOOOOOOOOO  OOOOOO   OOOOOOOOOOOOOOOOOO........",
".....+@@@@OOOO   OOOOOOOOOO  OOOOOO   OOOOOOOOOOOOOOOOOO........",
"XXXXX+@@@@OOOO   OOOOOOOOOO   OOOOO OOOOOOOOOOOO   OOOOOXXXXXXXX",
"ooooo++++++OOO   OOOOOOOOOO   OOOOOOOOOOOOOOOOOO   OOOOooooooooo",
"ooooooooooooOOOOOOOOO   OOOOOOOOOOOOOOO    OOOOO  OOOOoooooooooo",
"............OOOOOOOO   OOOOOOOOOOOOOOOO    OOOOOOOOOOO..........",
".............OOOOOOO   OOOOOOOOOOOOOOO    OOOOOOOOOOO...........",
"...............OOOOOOOOOOOOOOOOOOOOOOOOO  OOOOOOOOO.............",
"................OOOOOOOOOOOOO    OOOOOOOOOOOOOOOOO..............",
"................XooOOOOOOOOO      OOOOOOOOOOOOOXoo..............",
"................Xoo..OOOOOOO   OOOOOOOOOOOOOO..Xoo..............",
"................Xoo.......OOOOOOOOOOOOOO.......Xoo..............",
"XXXXXXXXXXXXXXXXXooXXXXXXXXXXXXXXooXXXXXXXXXXXXXooXXXXXXXXXXXXXX",
"oooooooooooooooooooooooooooooooooooooooooooooooooooooooooooooooo",
"oooooooooooooooooooooooooooooooooooooooooooooooooooooooooooooooo",
"................Xoo.............Xoo............Xoo..............",
"................Xoo.............Xoo............Xoo..............",
"................Xoo.............Xoo............Xoo..............",
"................Xoo.............Xoo............Xoo..............",
"................Xoo.............Xoo............Xoo..............",
"................Xoo.............Xoo............Xoo..............",
"................Xoo.............Xoo............Xoo..............",
"XXXXXXXXXXXXXXXXXooXXXXXXXXXXXXXXooXXXXXXXXXXXXXooXXXXXXXXXXXXXX",
"oooooooooooooooooooooooooooooooooooooooooooooooooooooooooooooooo",
"oooooooooooooooooooooooooooooooooooooooooooooooooooooooooooooooo",
"................Xoo.............Xoo............Xoo.............."
};
