/* XPM */
static char *_6711e9f4b0e4b8eb316c4947a609956gWDM4RIC9ldvXznb[] = {
/* columns rows colors chars-per-pixel */
"64 64 7 1 ",
"  c black",
". c #6E0000",
"X c #8B0000",
"o c #A90000",
"O c #C00000",
"+ c #9C8383",
"@ c white",
/* pixels */
"XXXXXXXXXXXXXXXXoOOXXXXXXXXXXXXXoOOXXXXXXXXXXXXoOOXXXXXXXXXXXXXX",
"XXXXXXXXXXXXXXXXoOOXXXXXXXXXXXXXoOOXXXXXXXXXXXXoOOXXXXXXXXXXXXXX",
"XXXXXXXXXXXXXXXXoOOXXXXXXXXXXXXXoOOXXXXXXXXXXXXoOOXXXXXXXXXXXXXX",
"XXXXXXXXXXXXXXXXoOOXXXXXXXXXXXXXoOOXXXXXXXXXXXXoOOXXXXXXXXXXXXXX",
"XXXXXXXXXXXXXXXXoOOXXXXXXXXXXXXXoOOXXXXXXXXXXXXoOOXXXXXXXXXXXXXX",
"XXXXXXXXXXXXXXXXoOOXXXXXXXXXXXXXoOOXXXXXXXXXXXXoOOXXXXXXXXXXXXXX",
"XXXXXXXXXXXXXXXXoOOXXXXXXXXXXXXXoOOXXXXXXXXXXXXoOOXXXXXXXXXXXXXX",
"XXXXXXXXXXXXXXXXoOOXXXXXXXXXXXXXoOOXXXXXXXXXXXXoOOXXXXXXXXXXXXXX",
"oooooooooooooooooOOooooooooooooooOOoooooooooooooOOoooooooooooooo",
"OOOOOOOOOOOOOOOOOOOOOOOOOOOOOOOOOOOOOOOOOOOOOOOOOOOOOOOOOOOOOOOO",
"OOOOOOOOOOOOOOOOOOOOOOOOOOOOOOOOOOOOOOOOOOOOOOOOOOOOOOOOOOOOOOOO",
"XXXXXXXXXXXXXXXXoOOXXXXXXXXXXXXXoOOXXXXXXXXXXXXoOOXXXXXXXXXXXXXX",
"XXXXXXXXXXXXXXXXoOOXXXXXXXXXXXXXoOOXXXXXXXXXXXXoOOXXXXXXXXXXXXXX",
"XXXXXXXXXXXXXXXXoOOXXXXXXXXXXXXXoOOXXXXXXXXXXXXoOOXXXXXXXXXXXXXX",
"XXXXXXXXXXXXXXXXoOOXXXXXXXXXXXXXoOOXXXXXXXXXXXXoOOXXXXXXXXXXXXXX",
"XXXXXXXXXXXXXXXXoOOXXXXXXXXXXXXXoOOXXXXXXXXXXXXoOOXXXXXXXXXXXXXX",
"XXXXXXXXXXXXXXXXoOOXXXXXXXXXXXXXoOOXXXXXXXXXXXXoOOXXXXXXXXXXXXXX",
"XXXXXXXXXXXXXXXXoOOXXXXXXXXXXXXXoOOXXXXXXXXXXXXoOOXXXXXXXXXXXXXX",
"XXXXXXXXXXXXXXXXoOOXXXXXXXXXXXXXoOOXXXXXXXXXXXXoOOXXXXXXXXXXXXXX",
"oooooooooooooooooOOooooooooooooooOOoooooooooooooOOoooooooooooooo",
"OOOOOOOOOOOOOOOOOOOOOOOOOOOOOOOOOOOOOOOOOOOOOOOOOOOOOOOOOOOOOOOO",
"OOOOOOOOOOOOOO@@@@@@@@@@OOOOOOOOOOOOOOOOOOOOOOOOOOOOOOOOOOOOOOOO",
"XXXXXXXXXXXXX++++++++++++XXXXXXXoOOXXXXXXXXXXXXoOOXXXXXXXXXXXXXX",
"XXXXXXXXXXXX+++Xo++X++X++XXXXXXXoOOXXXXXXXXXXXXoOOXXXXXXXXXXXXXX",
"XXXXXXXXXXX+++XXo++X++X++XXXXXXXoOOXXXXXXXXXXXXoOOXXXXXXXXXXXXXX",
"XXXXXXXXXXX@+XXXo++X++X++XXXXXXXoOOXXXXXXXXXXXXoOOXXXXXXXXXXXXXX",
"XXXXXXXXXXX@+XXXo++X++X++XXXXXXXoOOXXXXXXXXXXXXoOOXXXXXXXXXXXXXX",
"XXXXXXXXXXX@+XXXo++X++X++XXXXXXXoOOXXXXXXXXXXXXoOOXXXXXXXXXXXXXX",
"XXXXXXXXXXX@+XXXo++X++X++XXXXXXXoOOXXXXXXXXXXXXoOOXXXXXXXXXXXXXX",
"ooooooooooo@+oo++++o++o++                                 oooooo",
"OOOOOOOOOOO@+++++++O++O++                                 OOOOOO",
"OOOOOOOOOOO++++OO++O++                                  . OOOOOO",
"XXXXXXXXXXX++XXXo++X++    ........................     .. XXXXXX",
"XXXXXXXXXXX++XXXo++ ++   ........................     ... XXXXXX",
"XXXXXXXXXXX++XX+++  ++                                ... XXXXXX",
"XXXXXXXXXXX+++++                                    . ... XXXXXX",
"XXXXXXXXXXX+++X                                    .. ... XXXXXX",
"XXXXXXXXXXX++XX ........ ........ ........ ....... .. ..  XXXXXX",
"XXXXXXXXXXX++XX ........ ........ ........ ....... .. . . XXXXXX",
"XXXXXXXXXXX++XX ........ ........ ........ ....... ..  .. XXXXXX",
"ooooooooooo++o+ ........ ........ ........ ....... .. ... oooooo",
"OOOOOOOOOOO++++ ........ ........ ........ ....... .  ... OOOOOO",
"OOOOOOOOOOO++OO ........ ........ ........ .......  . ... OOOOOO",
"XXXXXXXXXXX++XX                                    .. ... XXXXXX",
"XXXXXXXXXXX++XX ........ ........ ........ ....... .. ... XXXXXX",
"XXXXXXXXXXX++XX ........ ........ ........ ....... .. ... XXXXXX",
"XXXXXXXXXXX++++ ........ ........ ........ ....... .. ..  XXXXXX",
"XXXXXXXXXXX+++X ........ ........ ........ ....... .. . . XXXXXX",
"XXXXXXXXXXX++XX ........ ........ ........ ....... ..  .. XXXXXX",
"XXXXXXXXXXX++XX ........ ........ ........ ....... .. ... XXXXXX",
"ooooooooooo++oo ........ ........ ........ ....... .  ... oooooo",
"OOOOOOOOOOO++++ ........ ........ ........ .......  . ... OOOOOO",
"OOOOOOOOOOO+++O                                    .. ... OOOOOO",
"XXXXXXXXXXX++XX ........ ........ ........ ....... .. ... XXXXXX",
"XXXXXXXXXXX++XX ........ ........ ........ ....... .. ..  XXXXXX",
"XXXXXXXXXXX++XX ........ ........ ........ ....... ..   . XXXXXX",
"XXXXXXXXXXX++X+ ........ ........ ........ ....... .. ... XXXXXX",
"XXXXXXXXXXX+++X ........ ........ ........ ....... .  ... XXXXXX",
"XXXXXXXXXXX++XX ........ ........ ........ .......  . ... XXXXXX",
"XXXXXXXXXXX++XX                                    .. ... XXXXXX",
"ooooooooooo++o+ ........ ........ ........ ....... .. ... oooooo",
"OOOOOOOOOOO++++ ........ ........ ........ ....... .. ... OOOOOO",
"OOOOOOOOOOO++OO ........ ........ ........ ....... .. ... OOOOOO",
"XXXXXXXXXXX++XX o..XXXXX XXXXXXXo .XXXXXXX XXXXo.. XXXXXX XXXXXX"
};
