/* XPM */
static char *d91027dc4f2f4ccd97ffc1b10666dce2x8ACzI1mrjqLTHMJ[] = {
/* columns rows colors chars-per-pixel */
"64 64 3 1 ",
"  c #8B0000",
". c #A90000",
"X c #C00000",
/* pixels */
"                .XX             .XX            .XX              ",
"                .XX             .XX            .XX              ",
"                .XX             .XX            .XX              ",
"                .XX             .XX            .XX              ",
"                .XX             .XX            .XX              ",
"                .XX             .XX            .XX              ",
"                .XX             .XX            .XX              ",
"                .XX             .XX            .XX              ",
".................XX..............XX.............XX..............",
"XXXXXXXXXXXXXXXXXXXXXXXXXXXXXXXXXXXXXXXXXXXXXXXXXXXXXXXXXXXXXXXX",
"XXXXXXXXXXXXXXXXXXXXXXXXXXXXXXXXXXXXXXXXXXXXXXXXXXXXXXXXXXXXXXXX",
"                .XX             .XX            .XX              ",
"                .XX             .XX            .XX              ",
"                .XX             .XX            .XX              ",
"                .XX             .XX            .XX              ",
"                .XX             .XX            .XX              ",
"                .XX             .XX            .XX              ",
"                .XX             .XX            .XX              ",
"                .XX             .XX            .XX              ",
".................XX..............XX.............XX..............",
"XXXXXXXXXXXXXXXXXXXXXXXXXXXXXXXXXXXXXXXXXXXXXXXXXXXXXXXXXXXXXXXX",
"XXXXXXXXXXXXXXXXXXXXXXXXXXXXXXXXXXXXXXXXXXXXXXXXXXXXXXXXXXXXXXXX",
"                .XX             .XX            .XX              ",
"                .XX             .XX            .XX              ",
"                .XX             .XX            .XX              ",
"                .XX             .XX            .XX              ",
"                .XX             .XX            .XX              ",
"                .XX             .XX            .XX              ",
"                .XX             .XX            .XX              ",
".................XX..............XX.............XX..............",
"XXXXXXXXXXXXXXXXXXXXXXXXXXXXXXXXXXXXXXXXXXXXXXXXXXXXXXXXXXXXXXXX",
"XXXXXXXXXXXXXXXXXXXXXXXXXXXXXXXXXXXXXXXXXXXXXXXXXXXXXXXXXXXXXXXX",
"                .XX             .XX            .XX              ",
"                .XX             .XX            .XX              ",
"                .XX             .XX            .XX              ",
"                .XX             .XX            .XX              ",
"                .XX             .XX            .XX              ",
"                .XX             .XX            .XX              ",
"                .XX             .XX            .XX              ",
"                .XX             .XX            .XX              ",
".................XX..............XX.............XX..............",
"XXXXXXXXXXXXXXXXXXXXXXXXXXXXXXXXXXXXXXXXXXXXXXXXXXXXXXXXXXXXXXXX",
"XXXXXXXXXXXXXXXXXXXXXXXXXXXXXXXXXXXXXXXXXXXXXXXXXXXXXXXXXXXXXXXX",
"                .XX             .XX            .XX              ",
"                .XX             .XX            .XX              ",
"                .XX             .XX            .XX              ",
"                .XX             .XX            .XX              ",
"                .XX             .XX            .XX              ",
"                .XX             .XX            .XX              ",
"                .XX             .XX            .XX              ",
".................XX..............XX.............XX..............",
"XXXXXXXXXXXXXXXXXXXXXXXXXXXXXXXXXXXXXXXXXXXXXXXXXXXXXXXXXXXXXXXX",
"XXXXXXXXXXXXXXXXXXXXXXXXXXXXXXXXXXXXXXXXXXXXXXXXXXXXXXXXXXXXXXXX",
"                .XX             .XX            .XX              ",
"                .XX             .XX            .XX              ",
"                .XX             .XX            .XX              ",
"                .XX             .XX            .XX              ",
"                .XX             .XX            .XX              ",
"                .XX             .XX            .XX              ",
"                .XX             .XX            .XX              ",
".................XX..............XX.............XX..............",
"XXXXXXXXXXXXXXXXXXXXXXXXXXXXXXXXXXXXXXXXXXXXXXXXXXXXXXXXXXXXXXXX",
"XXXXXXXXXXXXXXXXXXXXXXXXXXXXXXXXXXXXXXXXXXXXXXXXXXXXXXXXXXXXXXXX",
"                .XX             .XX            .XX              "
};
