/* XPM */
static char *be1cded1bd104337c354b7af31c7bd07ScfbmehFkKOPTS25[] = {
/* columns rows colors chars-per-pixel */
"64 64 229 2 ",
"   c black",
".  c #08141D",
"X  c #3D1F15",
"o  c #061422",
"O  c #0B1525",
"+  c #0E1924",
"@  c #091829",
"#  c #131523",
"$  c #171727",
"%  c #141B2B",
"&  c #101C30",
"*  c #23132A",
"=  c #281729",
"-  c #22192B",
";  c #38172C",
":  c #351B2E",
">  c #241E31",
",  c #361C31",
"<  c #1C202F",
"1  c #162734",
"2  c #1A2636",
"3  c #1B343D",
"4  c #292934",
"5  c #322A37",
"6  c #32373E",
"7  c #430F19",
"8  c #462B17",
"9  c #512F13",
"0  c #49172D",
"q  c #55152B",
"w  c #451D32",
"e  c #571B33",
"r  c #64162D",
"t  c #731928",
"y  c #7A1C34",
"u  c #4E2E32",
"i  c #472A3B",
"p  c #622D35",
"a  c #782135",
"s  c #7A243B",
"d  c #283744",
"f  c #3B3D42",
"g  c #44394A",
"h  c #5C3543",
"j  c #703747",
"k  c #37454B",
"l  c #3D524F",
"z  c #344750",
"x  c #1E5B68",
"c  c #275864",
"v  c #3A5C67",
"b  c #356770",
"n  c #49434B",
"m  c #5B4644",
"M  c #544F58",
"N  c #455858",
"B  c #674152",
"V  c #69545A",
"C  c #4C5865",
"Z  c #545A62",
"A  c #4D6367",
"S  c #5D6169",
"D  c #577475",
"F  c #616671",
"G  c #676973",
"H  c #6C7073",
"J  c #737372",
"K  c #8B0000",
"L  c #9A191A",
"P  c #A90000",
"I  c #AE1D1D",
"U  c #B81B1A",
"Y  c #81330E",
"T  c #8C192E",
"R  c #831B34",
"E  c #8B1F33",
"W  c #941F34",
"Q  c #A81C2B",
"!  c #B81C2A",
"~  c #AA1E37",
"^  c #B51F36",
"/  c #882537",
"(  c #982F37",
")  c #A22B2E",
"_  c #B32325",
"`  c #A82136",
"'  c #AC223B",
"]  c #B22338",
"[  c #A03439",
"{  c #C00000",
"}  c #EB1F1D",
"|  c #FF1F1A",
" . c #ED211C",
".. c #F3231D",
"X. c #FE231D",
"o. c #C7242A",
"O. c #D4272F",
"+. c #E52226",
"@. c #F42422",
"#. c #FC2421",
"$. c #F42B26",
"%. c #F52A28",
"&. c #FB3631",
"*. c #8E5114",
"=. c #BD7004",
"-. c #9C4A2C",
";. c #D45B10",
":. c #DA6312",
">. c #883141",
",. c #963846",
"<. c #B63C4E",
"1. c #844251",
"2. c #A74746",
"3. c #A35C66",
"4. c #84757B",
"5. c #A76A68",
"6. c #B46C6B",
"7. c #CB4E48",
"8. c #D65548",
"9. c #E35A4B",
"0. c #FE504A",
"q. c #FF534F",
"w. c #ED6357",
"e. c #F76358",
"r. c #C96973",
"t. c #F96B68",
"y. c #EF7D64",
"u. c #F27A66",
"i. c #F47876",
"p. c #FC9E0A",
"a. c #F29111",
"s. c #EF9C24",
"d. c #EE8773",
"f. c #E79878",
"g. c #F89E79",
"h. c #F9A079",
"j. c #FDA17A",
"k. c #2F7983",
"l. c #437F86",
"z. c #637780",
"x. c #D37D87",
"c. c #39858B",
"v. c #388791",
"b. c #3E929B",
"n. c #508B91",
"m. c #469499",
"M. c #668B90",
"N. c #6A9697",
"B. c #789C98",
"V. c #539CA0",
"C. c #51A0A5",
"Z. c #6CAAAC",
"A. c #68B8BB",
"S. c #7BBDBD",
"D. c #76C0BC",
"F. c #70BEC0",
"G. c #78C6C7",
"H. c #7FD2D5",
"J. c #818384",
"K. c #8F9197",
"L. c #8E9298",
"P. c #93969A",
"I. c #929CA2",
"U. c #8BAAA9",
"Y. c #8AB1A9",
"T. c #84BBBC",
"R. c #97BFBC",
"E. c #A4A6A9",
"W. c #ADBAAF",
"Q. c #F3958E",
"!. c #D7A19F",
"~. c #F5A993",
"^. c #FEA9A8",
"/. c #FFB1A8",
"(. c #FABEB5",
"). c #94C1BA",
"_. c #CFCEAC",
"`. c #F2C6B7",
"'. c #F8DDB4",
"]. c #8ECEC7",
"[. c #94D5CD",
"{. c #94D8CE",
"}. c #95CED1",
"|. c #87D2D1",
" X c #8BD4D5",
".X c #95D7D6",
"XX c #99DEDA",
"oX c #AECCCB",
"OX c #A4D3C8",
"+X c #B8D6D5",
"@X c #99E1DE",
"#X c #A7E5DB",
"$X c #B4E7DB",
"%X c #94E0E0",
"&X c #A5E8E1",
"*X c #B7EDE3",
"=X c #B6F5E7",
"-X c #BCF5E6",
";X c #BCF7E9",
":X c #BCF9E9",
">X c #D1D3CF",
",X c #E7CCCA",
"<X c #FDC6C7",
"1X c #F6D2CD",
"2X c #F8D9D7",
"3X c #D3E1DE",
"4X c #F6E3DC",
"5X c #CFEAE9",
"6X c #D7E9E7",
"7X c #C6F6E7",
"8X c #C3F6E9",
"9X c #CBF6E9",
"0X c #C2F9EA",
"qX c #CAF9EA",
"wX c #D7F7ED",
"eX c #DDF6F2",
"rX c #E9EBE9",
"tX c #FBECE6",
"yX c #F8EBE8",
"uX c #E9F4ED",
"iX c #FAF5EE",
"pX c #E7F8F2",
"aX c #EBFBF3",
"sX c #F6F3F2",
"dX c #F5FBF6",
"fX c #FCFCF6",
"gX c #F7F7F8",
"hX c #F5FCF9",
"jX c #FCFDFB",
/* pixels */
"K K K K K K K K K K K K K K K K P { { K K K K K K K K K K K K K P { { K K K K K K K K K K K K P { { K K K K K K K K K K K K K K ",
"K K K K K K K K K K K K K K K K P { { K K K K K K K K K K K K K P { { K K K K K K K K K K K K P { { K K K K K K K K K K K K K K ",
"K K K K K K K K K K K K K K K K P { { K K K K K K K K K K K K K P { { K K K K K K K K K K K K P { { K K K K K K K K K K K K K K ",
"K K K K K K K K K K K K K K K K P { { K K K K K K K K K K K K K P { { K K K K K K K K K K K K P { { K K K K K K K K K K K K K K ",
"K K K K K K K K K K K K K K K K P { { K K K K K K K K K K K K K P { { K K K K K K K K K K K K P { { K K K K K K K K K K K K K K ",
"K K K K K K K K K K K K K K K K P { { K K K K K K K K K K K K K P { { K K K K K K K K K K K K P { { K K K K K K K K K K K K K K ",
"K K K K K K K K K K K K K K K K P { { K K K K K K K K K K K K K P { { K K K K K K K K K K K K P { { K K K K K K K K K K K K K K ",
"K K K K K K K K K K K K K K K K P { { K K K K K K K K K K K K K P { { K K K K K K K K K K K K P { { K K K K K K K K K K K K K K ",
"P P P P P P P P P P P P P P P P P { { P P P P P P P P P P P P P P { { P P P P P P P P P P P P P { { P P P P P P P P P P P P P P ",
"{ { { { { { { { { { { { { { { { { { { { { { { { { { { { { { { { { { P P { { { { { { { { { { { { { { { { { { { { { { { { { { { { ",
"{ { { { { { { { { { { { { { { { { { { { { { { { { { { { { { { { { { { { { { { { { { { { { { { { { { { { { { { { { { { { { { { { ",
"K K K K K K K K K K K K K K K K P { { K K K K K K K K K K K K K P { { K K K K K K K K K K K K P { { K K K K K K K K K K K K K K ",
"K K K K K K K K K K K K K K K K P { { K K K K K H 2 < % % % % % % % % % Z K K K K K K K K K K P { { K K K K K K K K K K K K K K ",
"K K K K K K K K K K K K K K K K P { { K K K 4 4 >XgXQ.$.%.%.$.$.$.$.$.O.>.4 4 K K K K K K K K P { { K K K K K K K K K K K K K K ",
"K K K K K K K K K K K K K K K K P { { K K J.E.E.,XQ./.Q.&.X.X.X.X.X.X.@.o.) e M K K K K K K K P { { K K K K K K K K K K K K K K ",
"K K K K K K K K K K K K K K K K P { { K 4.V iXjX<XX.^.2X0.&.X.X.X.X.X.X.X.@.Q q K K K K K K K P { { K K K K K K K K K K K K K K ",
"K K K K K K K K K K K K K K K K P { { Z [ O.t.tX<Xq.q.q.%.<X%.X.X.X.X.X.X.X. .+.) M K K K K K P { { K K K K K K K K K K K K K K ",
"K K K K K K K K K K K K K K K K P { { ; I #.w.X.X.Q.0.w.X.| X.X.X.@.@.@.+...X.X.U 7 K K K K K P { { K K K K K K K K K K K K K K ",
"K K K K K K K K K K K K K K K K P { = ~ +.@.d.#.X.X.#.i.X.X.X.X...^ ' / q ! } X.X.X.7 K K K K P { { K K K K K K K K K K K K K K ",
"P P P P P P P P P P P P P P P P P 4 ~ ] +.%.1X#.4XtXtXtXtXtXtXtX1X<.] ' / = 0 y o.X. .t n P P P { { P P P P P P P P P P P P P P ",
"{ { { { { { { { { { { { { { { { { - 6.r.t.t.yXt.iXfXfXfXfXfXfXfXyXx.r.6.5.C i r Q +.#.L p { { { { { { { { { { { { { { { { { { { ",
"{ { { { { { { { { { { { { { { { { 1 #XdXfXfXjXfXfXfXfXfXfXfXfXfXfXfXqX:X:X XC * e ~ %.X.} { { { { { { { { { { { { { { { { { { { ",
"K K K K K K K K K K K K K K K K P 1 XX8XpXfXfXdX9X9X9X9X9X9X9X9X9X9X0X:X:X=X.X3 = q Q ! o.+.i G { { K K K K K K K K K K K K K K ",
"K K K K K K K K K K K K K K K K P 1 @X*X-X9X5X*X{.[.[.[.[.[.].].{.#X[.#X:X:X@X3 $ : a E W +.$ S { { K K K K K K K K K K K K K K ",
"K K K K K K K K K K K K K K K K P 1 XXXX=X#X X Xm.m.m.m.m.m.c.c.C.|.m.D.:X:X@X3 O O O ; e ^ % S { { K K K K K K K K K K K K K K ",
"K K K K K K K K K K K K K K K K P 1 XXXXS.N.M.5X+X+X+X5.5.5.oXoX+X5Xv n.Z.:X@X3 k P.I.B e ] % S jX{ K K K K K K K K K K K K K K ",
"K K K K K K K K K K K K K K K K P 1 }.}.N.N M sXsXsXiX8.9.9.tXsXuXuXi M z.$X}.1 S gX  4.h 2.f J jXgXgXK K K K K K K K K K K K K ",
"K K K K K K K K K K K K K K K K P @ @ O ( y.h.OX:Xm g.j.j.j.j.>X=XD f.y.8.@ O O F gXK jXjX0XdXuX#Xz L.K K K K K K K K K K K K K ",
"K K K K K K K K K K K K K K K K P & n.B.6.y.f.Z D m g.j.~.j.j.J D d f.y.8.B.N.o F gXK jXjXjXjXaX8Xk L.K K K K K K K K K K K K K ",
"P P P P P P P P P P P P P P P P P 2  X-X!.u.d.# O m g.j.~.j.j.u O @ Q.y.7.=X&Xo F gXP jXjX9X9XqX:Xk L.P P P P P P P P P P P P P ",
"{ { { { { { { { { { { { { { { { { 2 @X-XpX`.e.e.yXdX(.w.y.9.Q.dX4Xi.e.~.jX=X&Xo F gX{ jXjX=X:X;X:Xk P.{ { { { { { { { { { { { { ",
"{ { { { { { { { { { { { { { { { { 2 @X-XpX4X/./.fXdX6X2.2.2.,XhXiX(./.1XjX:X&Xo F gX{ { jXhXhX3XhX3XrX{ { { { { { { { { { { { { ",
"K K K K K K K K K K K K K K K K P 2 @X-XpXfXfXdXdX6XXX# # $ XXeXdXdXjXfXdX;X#Xo F gXK K K K jXjXjXjXjXK K K K K K K K K K K K K ",
"K K K K K K K K K K K K K K K K P 2 .X&XeXfXuX}.}.Z.v R T T C T.}.}.jXaXqX&X.X. G gXK K K K K P { { K K K K K K K K K K K K K K ",
"K K K K K K K K K K K K K K K K P 2 |.XXeXjXuXA.A.l.@ >.,.( # V.A.A.hXpX:XXX X. G gXK K K K K P { { K K K K K K K K K K K K K K ",
"K K K K K K K K K K K K K K K K P @ @ G.&XwXuX XA.G.XXfXdXdX}.G.F.%XhXpX:X|.v # G gXK K K K K P { { K K K K K K K K K K K K K K ",
"K K K K K K K K K K K K K K   f ) o./ d R.8X7X*XpXpXaXfXjXjXuXuXeX8XqX7X:Xd a ! _ n K K K K K P { { K K K K K K K K K K K K K K ",
"K K K K K K K K K K K K K K jX+ _ @.] , B.OX:X-XaXdXjXjXjXjXjXfXaXqX:X$XOX: W +.U # K K K K K P { { K K K K K K K K K K K K K K ",
"K K K K K K K K K K K K K   jX+ _ #.%.' i N :X:X8X9XpXfXjXfXpXwX-X-X:XB.4 ^ +.#.U # K K K K K P { { K K K K K K K K K K K K K K ",
"K K K K K K K K K K K K   E.n 6X2X<Xo.q a j N N *X:X:XeXjXwX0X-X$XD N j / q Q Q.1X3XJ J.K K K P { { K K K K K K K K K K K K K K ",
"P P P P P P P P P P P P   K.% hXdXrX,.= R W : : OXOXOX0XaX:X#XOXR.n : t ' * j !.jXdXN 6 P P P P { { P P P P P P P P P P P P P P ",
"{ { { { { { { { { { { { { L.% qXaXrXn.: y ' ~ ` 5 1 2 :X0X:XM.2 4 / ` ~ ] $ b oXdX0Xl 6 { { { { { { { { { { { { { { { { { { { { ",
"{ { { { { { { { { { { { { L.% :X*X#Xm.> e s s s *.9 O ).).).A 9 Y / s s s $ b S.*X-Xl 6 { { { { { { { { { { { { { { { { { { { { ",
"K K K K K K K K K K K K K K.4 *XT.Z.n.w * * * - a.=.8 8 8 X # -.;.p * * * = b V.S.$XA S K K K P { { K K K K K K K K K K K K K K ",
"K K K K K K K K K K K K K K K . + @ # y w - - > s.p.p.p.a.:.8 -.:.p - = = a : @ O + rXK K K K P { { K K K K K K K K K K K K K K ",
"K K K K K K K K K K K K K K K K P { + I.U.Y.Y.Y.'.'.'._._._.W._.`.W.Y.Y.Y.U.z k P.P.K K K K K P { { K K K K K K K K K K K K K K ",
"K K K K K K K K K K K K K K K K P { + |.=X:X:X0XhXjXjX7X:X0XaXjXdXqX-X:X:XXXv H K K K K K K K P { { K K K K K K K K K K K K K K ",
"K K K K K K K K K K K K K K K K P { % @ c b.b.b.k.x % % % % + b m.H.v.v.k.@ # H K K K K K K K P { { K K K K K K K K K K K K K K ",
"K K K K K K K K K K K K K K K K P { { K 5 B 1.1.h i # K K K O g B 3.1.j h 3 K K K K K K K K K P { { K K K K K K K K K K K K K K ",
"K K K K K K K K K K K K K K K K P { { K 0 R ' ' R r # K K K O e R ` ` W y k K K K K K K K K K P { { K K K K K K K K K K K K K K ",
"P P P P P P P P P P P P P P P P P { { K - , w w y r # K K K O e y e w , , k P P P P P P P P P P { { P P P P P P P P P P P P P P ",
"{ { { { { { { { { { { { { { { { { { { K O O O O $ # K K K K O $ $ O O O O k { { { { { { { { { { { { { { { { { { { { { { { { { { ",
"{ { { { { { { { { { { { { { { { { { { { { { { { { { { { { { { { { { { { { { { { { { { { { { { { { { { { { { { { { { { { { { { { ",
"K K K K K K K K K K K K K K K K P { { K K K K K K K K K K K K K P { { K K K K K K K K K K K K P { { K K K K K K K K K K K K K K ",
"K K K K K K K K K K K K K K K K P { { K K K K K K K K K K K K K P { { K K K K K K K K K K K K P { { K K K K K K K K K K K K K K ",
"K K K K K K K K K K K K K K K K P { { K K K K K K K K K K K K K P { { K K K K K K K K K K K K P { { K K K K K K K K K K K K K K ",
"K K K K K K K K K K K K K K K K P { { K K K K K K K K K K K K K P { { K K K K K K K K K K K K P { { K K K K K K K K K K K K K K ",
"K K K K K K K K K K K K K K K K P { { K K K K K K K K K K K K K P { { K K K K K K K K K K K K P { { K K K K K K K K K K K K K K ",
"K K K K K K K K K K K K K K K K P { { K K K K K K K K K K K K K P { { K K K K K K K K K K K K P { { K K K K K K K K K K K K K K ",
"K K K K K K K K K K K K K K K K P { { K K K K K K K K K K K K K P { { K K K K K K K K K K K K P { { K K K K K K K K K K K K K K ",
"P P P P P P P P P P P P P P P P P { { P P P P P P P P P P P P P P { { P P P P P P P P P P P P P { { P P P P P P P P P P P P P P ",
"{ { { { { { { { { { { { { { { { { { { { { { { { { { { { { { { { { { { { { { { { { { { { { { { { { { { { { { { { { { { { { { { { ",
"{ { { { { { { { { { { { { { { { { { { { { { { { { { { { { { { { { { { { { { { { { { { { { { { { { { { { { { { { { { { { { { { { ",
"K K K K K K K K K K K K K K K K P { { K K K K K K K K K K K K K P { { K K K K K K K K K K K K P { { K K K K K K K K K K K K K K "
};
