/* XPM */
static char *_032eb7238314943ea80f9e8d668623a3nf9hv205UNUhM5E[] = {
/* columns rows colors chars-per-pixel */
"64 64 9 1 ",
"  c #035F00",
". c #047700",
"X c #5F4200",
"o c #8B0000",
"O c #A90000",
"+ c #C00000",
"@ c #FFD300",
"# c #0023FF",
"$ c #F6FFDC",
/* pixels */
"ooooooooooooooooO++oooooooooooooO++ooooooooooooO++oooooooooooooo",
"ooooooooooooooooO++oooooooooooooO++ooooooooooooO++oooooooooooooo",
"ooooooooooooooooO++oooooooooooooO++ooooooooooooO++oooooooooooooo",
"ooooooooooooooooO++oooooooooooooO++ooooooooooooO++oooooooooooooo",
"ooooooooooooooooO++oooooooooooooO++ooooooooooooO++oooooooooooooo",
"ooooooooooooooooO++oooooooooooooO@+ooooooooooooO++oooooooooooooo",
"ooooooooooooooooO++ooooooooooooo@@@ooooooooooooO++oooooooooooooo",
"ooooooooooooooooO++oooooooooooo@@@@@oooooooooooO++oooooooooooooo",
"OOOOOOOOOOOOOOOOO++OOOOOOOOOOOOO@@@OOOOOOOOOOOOO++OOOOOOOOOOOOOO",
"++++++++++++++++++++++++++++++++.@..++++++++++++++++++++++++++++",
"+++++++++++++++++++++++++++++++.....++++++++++++++++++++++++++++",
"ooooooooooooooooO++ooooooooooo......$ooooooooooO++oooooooooooooo",
"ooooooooooooooooO++ooooooooooo....$$$ooooooooooO++oooooooooooooo",
"ooooooooooooooooO++oooooooooo....$#...oooooooooO++oooooooooooooo",
"ooooooooooooooooO++ooooooooo..$$$......ooooooooO++oooooooooooooo",
"ooooooooooooooooO++ooooooooo$$$........ooooooooO++oooooooooooooo",
"ooooooooooooooooO++oooooooo.#$..........oooooooO++oooooooooooooo",
"ooooooooooooooooO++ooooooo...$$$........oooooooO++oooooooooooooo",
"ooooooooooooooooO++ooooooo......$$$#$$$$$ooooooO++oooooooooooooo",
"OOOOOOOOOOOOOOOOO++OOOOOO.............$$..OOOOOO++OOOOOOOOOOOOOO",
"++++++++++++++++++++++++.............$#...++++++++++++++++++++++",
"++++++++++++++++++++++++............$$.....+++++++++++++++++++++",
"ooooooooooooooooO++oooo...........#$$......ooooO++oooooooooooooo",
"ooooooooooooooooO++ooo...........$$.........oooO++oooooooooooooo",
"ooooooooooooooooO++ooo....o....$$$......o....ooO++oooooooooooooo",
"ooooooooooooooooO++oo....o....$$.........o...ooO++oooooooooooooo",
"ooooooooooooooooO++o...oo.$$#$...........oo...oO++oooooooooooooo",
"ooooooooooooooooO++o..oo$$$...............ooo.oO++oooooooooooooo",
"ooooooooooooooooO++.ooo$$..................ooo.O++oooooooooooooo",
"OOOOOOOOOOOOOOOOO++OOOO$$$$$................OOOO++OOOOOOOOOOOOOO",
"++++++++++++++++++++++....#$$$$$$$$..........+++++++++++++++++++",
"+++++++++++++++++++++.............#$$$$$$$....++++++++++++++++++",
"ooooooooooooooooO++o......................$#$$$O++oooooooooooooo",
"ooooooooooooooooO++..........................$$O++oooooooooooooo",
"ooooooooooooooooO++....o.................$$$$$..++oooooooooooooo",
"ooooooooooooooooO+...oo..............$$$$$$oo....+oooooooooooooo",
"ooooooooooooooooO..ooo...........$$$$$#.....ooo...oooooooooooooo",
"ooooooooooooooooO++oo...$$$#$$$$$$$..........ooO++oooooooooooooo",
"ooooooooooooooooO++o$#$$$$.....XXXXX..........oO++oooooooooooooo",
"ooooooooooooooooO++$$......  XXXXXXXXX ........O++oooooooooooooo",
"OOOOOOOOOOOOOOO  .......     XXXXXXXXX    ....... OOOOOOOOOOOOOO",
"+++++++++++++   .....        XXXXXXXXX      ......  ++++++++++++",
"+++++++++++    ....          XXXXXXXXX         ....   ++++++++++",
"ooooooooo     ..             XXXXXXXXX            ..    oooooooo",
"oooooooo                     XXXXXXXXX                   ooooooo",
"ooooooo                      XXXXXXXXX                    oooooo",
"oooooo                       XXXXXXXXX                     ooooo",
"ooooo                        XXXXXXXXX                      oooo",
"ooooo                        XXXXXXXXX                      oooo",
"ooooo                        XXXXXXXXX                      oooo",
"OOOOO                                                       OOOO",
"+++++                                                       ++++",
"++++++                                                     +++++",
"ooooooo                                                   oooooo",
"oooooooo                                                 ooooooo",
"ooooooooo                                               oooooooo",
"ooooooooooo                                           oooooooooo",
"ooooooooooooo                                       oooooooooooo",
"ooooooooooooooo                                   oooooooooooooo",
"ooooooooooooooooO++                           oO++oooooooooooooo",
"OOOOOOOOOOOOOOOOO++OOOOO                 OOOOOOO++OOOOOOOOOOOOOO",
"++++++++++++++++++++++++++++++++++++++++++++++++++++++++++++++++",
"++++++++++++++++++++++++++++++++++++++++++++++++++++++++++++++++",
"ooooooooooooooooO++oooooooooooooO++ooooooooooooO++oooooooooooooo"
};
